storage/app/icons/phosphoricons/duotone/selection-plus-duotone.svg

<svg xmlns="http://www.w3.org/2000/svg" fill="currentColor" viewBox="0 0 256 256"><path d="M216 40v176H40V40Z" opacity=".2"/><path d="M152 40a8 8 0 0 1-8 8h-32a8 8 0 0 1 0-16h32a8 8 0 0 1 8 8m-8 168h-32a8 8 0 0 0 0 16h32a8 8 0 0 0 0-16m64-160v24a8 8 0 0 0 16 0V48a16 16 0 0 0-16-16h-24a8 8 0 0 0 0 16Zm8 56a8 8 0 0 0-8 8v32a8 8 0 0 0 16 0v-32a8 8 0 0 0-8-8M40 152a8 8 0 0 0 8-8v-32a8 8 0 0 0-16 0v32a8 8 0 0 0 8 8m32 56H48v-24a8 8 0 0 0-16 0v24a16 16 0 0 0 16 16h24a8 8 0 0 0 0-16m0-176H48a16 16 0 0 0-16 16v24a8 8 0 0 0 16 0V48h24a8 8 0 0 0 0-16m168 176h-16v-16a8 8 0 0 0-16 0v16h-16a8 8 0 0 0 0 16h16v16a8 8 0 0 0 16 0v-16h16a8 8 0 0 0 0-16"/></svg>

<svg xmlns="http://www.w3.org/2000/svg" viewBox="0 0 256 256" fill="currentColor"><path d="M216,40V216H40V40Z" opacity="0.2"/><path d="M152,40a8,8,0,0,1-8,8H112a8,8,0,0,1,0-16h32A8,8,0,0,1,152,40Zm-8,168H112a8,8,0,0,0,0,16h32a8,8,0,0,0,0-16ZM208,48V72a8,8,0,0,0,16,0V48a16,16,0,0,0-16-16H184a8,8,0,0,0,0,16Zm8,56a8,8,0,0,0-8,8v32a8,8,0,0,0,16,0V112A8,8,0,0,0,216,104ZM40,152a8,8,0,0,0,8-8V112a8,8,0,0,0-16,0v32A8,8,0,0,0,40,152Zm32,56H48V184a8,8,0,0,0-16,0v24a16,16,0,0,0,16,16H72a8,8,0,0,0,0-16ZM72,32H48A16,16,0,0,0,32,48V72a8,8,0,0,0,16,0V48H72a8,8,0,0,0,0-16ZM240,208H224V192a8,8,0,0,0-16,0v16H192a8,8,0,0,0,0,16h16v16a8,8,0,0,0,16,0V224h16a8,8,0,0,0,0-16Z"/></svg>
